src/16/actions/fork.svg

<svg xmlns="http://www.w3.org/2000/svg" viewBox="0 0 16 16"><path d="M3 2v12h7l3-3V8h-1v2H9v3H4V3h5V2H3zm9 0L8 5l2.7.9L10 8l4-3-2.7-.9L12 2z" fill="currentColor" color="#5d656b"/></svg>

<svg xmlns="http://www.w3.org/2000/svg" viewBox="0 0 16 16">
  <defs id="defs3051">
    <style type="text/css" id="current-color-scheme">
      .ColorScheme-Text {
        color:#5d656b;
      }
      </style>
  </defs>
 <path style="fill:currentColor;fill-opacity:1;stroke:none" 
     d="M 3 2 L 3 14 L 10 14 L 13 11 L 13 8 L 12 8 L 12 10 L 9 10 L 9 13 L 4 13 L 4 3 L 9 3 L 9 2 L 3 2 z M 12 2 L 8 5 L 10.699219 5.9003906 L 10 8 L 14 5 L 11.300781 4.0996094 L 12 2 z "
     class="ColorScheme-Text"
     />
</svg>
